packages/core/src/svgs/tokens/branded/SAITAMA.svg

<svg width="24" height="24" viewBox="0 0 24 24" fill="none" xmlns="http://www.w3.org/2000/svg">
<path fill-rule="evenodd" clip-rule="evenodd" d="M6.39999 2C5.49313 4.46395 5.49313 7.17029 6.39999 9.6343L6.43427 9.68003L4.57142 11.28L7.08571 12.92L4 15.6686L8.17714 18.1828L9.05713 22L11.9142 19.4513L14.8857 22L15.7828 18.1828L20 15.6686L16.92 12.9428L19.4285 11.28L17.5542 9.69137L17.6057 9.6343C18.12 8.42854 18.84 5.2057 17.6057 2L13.7885 6.51999C13.2494 6.17607 12.6222 5.99548 11.9828 5.99999C11.1828 5.99999 10.5315 6.27427 10.1828 6.48569L6.39999 2ZM5.93714 15.4228L8.04571 13.5428L9.30284 14.36L9.86279 16.2856H14.0114L14.6172 14.4686L16.1028 13.48L15.9085 13.6514L18.0628 15.4228L14.7828 17.4228L14.2628 19.9143L11.9085 18.0228L9.71999 19.9085L9.05713 17.4171L5.93714 15.4171V15.4228ZM14.6685 13.04L17.5085 11.1543L14.2 8.31426L13.7428 10.3714L14.6685 13.04ZM13.2342 7.55427C12.8516 7.33965 12.4216 7.22377 11.9828 7.21712C11.4342 7.21712 10.9714 7.41141 10.6572 7.60569L11.3542 10.5256L10.2457 13.8743L10.7257 15.1428H11.4285V13.4286H12.5714V15.1428H13.1657L13.6172 13.8743L12.5372 10.5256L13.2342 7.55427ZM9.70852 8.37712L6.43999 11.1543L9.31999 12.9886L10.1885 10.3656L9.70852 8.37712ZM9.33141 7.18855L7.06857 4.51427C6.91999 4.95999 6.83999 5.77142 6.85714 6.57141C6.87427 7.40569 7.05714 8.26854 7.37142 8.86854L9.33141 7.18855ZM14.6342 7.22855L16.6114 8.89712C16.9696 8.16246 17.1516 7.3544 17.1428 6.53712C17.1428 5.8457 17.0457 5.22855 16.9714 4.7657L16.9314 4.51427L14.6342 7.22855Z" fill="url(#paint0_linear_364_7671)"/>
<defs>
<linearGradient id="paint0_linear_364_7671" x1="4" y1="12" x2="19.0714" y2="12" gradientUnits="userSpaceOnUse">
<stop offset="0.27" stop-color="#2F239F"/>
<stop offset="1" stop-color="#81BBE3"/>
</linearGradient>
</defs>
</svg>

<svg xmlns="http://www.w3.org/2000/svg" width="24" height="24" fill="none" viewBox="0 0 24 24">
    <path fill="url(#SAITAMA__a)" fill-rule="evenodd" d="M6.4 2a11.05 11.05 0 0 0 0 7.634l.034.046-1.863 1.6 2.515 1.64L4 15.669l4.177 2.514.88 3.817 2.857-2.549L14.886 22l.897-3.817L20 15.669l-3.08-2.726 2.508-1.663-1.874-1.589.052-.057c.514-1.205 1.234-4.428 0-7.634l-3.818 4.52A3.3 3.3 0 0 0 11.984 6c-.8 0-1.452.274-1.8.486zm-.463 13.423 2.109-1.88 1.257.817.56 1.926h4.148l.606-1.817 1.486-.989-.195.171 2.155 1.772-3.28 2-.52 2.491-2.354-1.891-2.189 1.886-.663-2.492-3.12-2zm8.731-2.383 2.84-1.886-3.308-2.84-.457 2.057zm-1.434-5.486a2.64 2.64 0 0 0-1.251-.337 2.54 2.54 0 0 0-1.326.389l.697 2.92-1.108 3.348.48 1.269h.702v-1.714h1.143v1.714h.595l.451-1.269-1.08-3.348zm-3.525.823L6.44 11.154l2.88 1.835.868-2.623zM9.33 7.19 7.07 4.514c-.149.446-.229 1.257-.212 2.057.017.835.2 1.698.514 2.298zm5.303.04 1.977 1.668c.359-.735.54-1.543.532-2.36 0-.691-.097-1.308-.172-1.771l-.04-.252z" clip-rule="evenodd"/>
    <defs>
        <linearGradient id="SAITAMA__a" x1="4" x2="19.071" y1="12" y2="12" gradientUnits="userSpaceOnUse">
            <stop offset=".27" stop-color="#2F239F"/>
            <stop offset="1" stop-color="#81BBE3"/>
        </linearGradient>
    </defs>
</svg>
